X: 1367
T: Dad's 43rd
C:Ailish Moran, Wodonga, Vic. 2019
B: australian traditional tunes wiki
M:6/8
L:1/8
R: Jig
Q: 3/8=100
K:G
V:1 
D |: "G"GAB "C"EFG | "G"DBA BAG | "C"efg "G"dcB | "D"cBA "G"BGE |
"G"GAB "C"EFG | "G"DBA BAG | "C"e2g "G"dcB | "D"cBA "G"G3:|
|: "G"dgg "C"eaa | "G"bag age | "G"dgg "C"eaa | "G"bgf g2e |
"G"dgg "C"eaa | "G"bag age | "C"e3 "G"dcB | "D"cBA "G"G3:|
% abcbook-tune_id 6342d53a9b8c9319047f141f


% abcbook-boost 0
% abcbook-tablature 
% abcbook-transpose 
% abcbook-lastupdated 1665324361393
% abcbook-soundfonts 
% abcbook-repeats 1
% NFF Book 2022
% Bush Traditions recording played by Ian Hayden

